X: 1
T: Alien Dream
M: 2/4
L: 1/8
R: polka
K: Amix
EA AB/c/| e3c|d>c BA/B/| cA FE|
EA AB/c/| e3c|1 dc BA/B/| cA AF:|2 dc BA/B/| cA A2||
c>B cd |e3c|d>c BA/B/| cA FE|
[1 c>B cc/d/| e3c|d>c BA/B/| cA AB:|
[2 EA AB/c/| e3c|d>c BA/B/| cA AF||
